packages/icons/src/speaker-wave.svg

<svg width="24" height="24" viewBox="0 0 24 24" fill="none" xmlns="http://www.w3.org/2000/svg">
<path d="M19.5 11.975C19.5 10.4084 19.0625 9.00004 18.1875 7.75004C17.3125 6.50004 16.1667 5.59171 14.75 5.02504C14.55 4.94171 14.4083 4.80838 14.325 4.62504C14.2417 4.44171 14.2417 4.25838 14.325 4.07504C14.4083 3.87504 14.5542 3.73754 14.7625 3.66254C14.9708 3.58754 15.1833 3.59171 15.4 3.67504C17.0833 4.35838 18.4375 5.45004 19.4625 6.95004C20.4875 8.45004 21 10.125 21 11.975C21 13.825 20.4875 15.5 19.4625 17C18.4375 18.5 17.0833 19.5917 15.4 20.275C15.1833 20.3584 14.9708 20.3625 14.7625 20.2875C14.5542 20.2125 14.4083 20.075 14.325 19.875C14.2417 19.6917 14.2417 19.5084 14.325 19.325C14.4083 19.1417 14.55 19.0084 14.75 18.925C16.1667 18.3584 17.3125 17.45 18.1875 16.2C19.0625 14.95 19.5 13.5417 19.5 11.975ZM7 15H3.75C3.53333 15 3.35417 14.9292 3.2125 14.7875C3.07083 14.6459 3 14.4667 3 14.25V9.75004C3 9.53338 3.07083 9.35421 3.2125 9.21254C3.35417 9.07088 3.53333 9.00004 3.75 9.00004H7L10.725 5.27504C10.9583 5.04171 11.2292 4.98754 11.5375 5.11254C11.8458 5.23754 12 5.46671 12 5.80004V18.2C12 18.5334 11.8458 18.7625 11.5375 18.8875C11.2292 19.0125 10.9583 18.9584 10.725 18.725L7 15ZM16.5 12C16.5 12.8667 16.2833 13.65 15.85 14.35C15.4167 15.05 14.8083 15.5834 14.025 15.95C13.8917 16.0167 13.7708 16.0084 13.6625 15.925C13.5542 15.8417 13.5 15.7334 13.5 15.6V8.37504C13.5 8.24171 13.5542 8.13338 13.6625 8.05004C13.7708 7.96671 13.8917 7.95838 14.025 8.02504C14.8083 8.39171 15.4167 8.93338 15.85 9.65004C16.2833 10.3667 16.5 11.15 16.5 12Z" fill="black"/>
</svg>

<svg xmlns="http://www.w3.org/2000/svg" width="24" height="24" fill="none" viewBox="0 0 24 24">
  <path fill="#000" d="M19.5 11.975c0-1.567-.438-2.975-1.313-4.225a7.519 7.519 0 0 0-3.437-2.725.771.771 0 0 1-.425-.4.636.636 0 0 1 0-.55c.083-.2.23-.337.438-.412a.886.886 0 0 1 .637.012 8.85 8.85 0 0 1 4.062 3.275C20.488 8.45 21 10.125 21 11.975c0 1.85-.512 3.525-1.538 5.025a8.85 8.85 0 0 1-4.062 3.275.886.886 0 0 1-.638.013.715.715 0 0 1-.437-.413.636.636 0 0 1 0-.55.772.772 0 0 1 .425-.4 7.519 7.519 0 0 0 3.438-2.725c.875-1.25 1.312-2.658 1.312-4.225ZM7 15H3.75a.728.728 0 0 1-.75-.75v-4.5A.728.728 0 0 1 3.75 9H7l3.725-3.725c.233-.233.504-.287.813-.162.308.125.462.354.462.687v12.4c0 .333-.154.563-.463.688-.308.124-.579.07-.812-.163L7 15Zm9.5-3c0 .867-.217 1.65-.65 2.35-.433.7-1.042 1.233-1.825 1.6-.133.067-.254.058-.363-.025a.391.391 0 0 1-.162-.325V8.375c0-.133.054-.242.162-.325.109-.083.23-.092.363-.025A4.12 4.12 0 0 1 15.85 9.65c.433.717.65 1.5.65 2.35Z"/>
</svg>
